frontend/public/svg/logos/facebook-2.svg

<svg width="160" height="158" viewBox="0 0 160 158" fill="none" xmlns="http://www.w3.org/2000/svg">
<g clip-path="url(#clip0)">
<path d="M158.835 96.6136C158.852 89.9406 158.87 83.0386 158.831 76.2507C158.796 70.0615 158.576 63.7746 158.363 57.6943L158.227 53.7662C158.177 52.279 158.137 50.7905 158.095 49.3033C157.964 44.5015 157.833 39.5362 157.349 34.6753C156.851 29.7481 155.918 24.8748 154.559 20.1126C150.761 6.77182 138.097 0.725586 127.87 0.725586H127.714C109.65 0.835194 91.2868 1.33942 73.5336 1.82642C67.3226 1.99664 61.1126 2.16133 54.9027 2.3206L51.3769 2.40649C44.3843 2.5732 37.1533 2.74575 30.0524 3.18878C17.2223 3.98885 8.69847 9.21941 3.99582 19.1787C2.62621 22.0793 1.82294 25.2146 1.62909 28.4164C0.4339 51.8621 0.968788 75.6928 1.48664 98.7382C1.55358 101.714 1.61925 104.687 1.68357 107.656L1.72884 109.776C1.8647 116.11 2.00582 122.659 2.04651 129.098C2.12987 142.356 13.6144 154.814 26.6231 155.753C29.4882 155.907 32.3595 155.903 35.2244 155.744C37.1363 155.672 39.1158 155.593 41.0441 155.623C49.648 155.741 58.3958 155.91 66.856 156.072C71.6755 156.164 76.495 156.254 81.3144 156.341C84.7714 156.401 88.2296 156.456 91.6898 156.506C97.7491 156.597 104.014 156.691 110.174 156.834C111.258 156.895 112.335 157.056 113.39 157.316C113.915 157.427 114.434 157.538 114.957 157.627C114.994 157.634 115.032 157.637 115.071 157.637H121.786C121.819 157.637 121.852 157.635 121.885 157.63C123.263 157.426 124.647 157.245 126.029 157.066C129.031 156.672 132.133 156.271 135.144 155.615C148.439 152.719 159.1 138.944 158.915 124.909C158.787 115.481 158.812 105.89 158.835 96.6136ZM150.04 111.421C150.053 116.19 150.064 120.96 150.074 125.729C150.089 134.561 142.844 144.342 134.57 146.659C129.589 148.126 124.438 148.932 119.249 149.058C111.985 149.124 104.76 148.802 97.1112 148.468C94.1006 148.337 91.0394 148.2 87.9093 148.087L88.6464 90.1165C89.9459 90.0804 91.216 90.0509 92.463 90.0167C96.0453 89.9249 99.4287 89.8382 102.821 89.7056C104.64 89.6505 106.452 89.4595 108.242 89.1346C110.766 88.6568 112.166 87.0225 111.988 84.7647C111.805 82.4301 110.141 80.981 107.647 80.981H107.641C105.602 80.981 103.537 81.0925 101.537 81.1989C100.77 81.2395 100.003 81.2809 99.2357 81.3157C96.8198 81.4266 94.4038 81.5408 91.8907 81.6609L89.0028 81.7987C88.9929 80.574 88.9792 79.3513 88.9614 78.1318C88.8203 67.3836 88.6871 57.2317 92.6369 47.3801C95.9186 39.1949 104.537 35.2117 112.685 38.1173C114.351 38.7905 115.934 39.6533 117.402 40.6888C118.449 41.3649 119.532 42.0671 120.661 42.6428C121.427 43.0366 123.386 43.9041 125.027 43.4959C126.899 43.0364 127.713 41.2323 127.152 38.7868C126.755 37.1056 125.997 35.5307 124.932 34.1709C123.867 32.8111 122.519 31.6988 120.982 30.9107C117.67 29.0647 114.006 27.9369 110.229 27.6008C106.452 27.2648 102.647 27.7278 99.0605 28.9599C92.3337 31.328 87.0495 36.4637 84.1741 43.4208C81.6367 49.6205 80.2604 56.2335 80.1127 62.9305C79.9952 67.4105 80.0221 71.8375 80.051 76.5244C80.0621 78.4022 80.0733 80.3062 80.0753 82.2457L77.9855 82.421C75.9115 82.5962 73.9516 82.7616 72.0214 82.8942C71.2994 82.9441 70.5564 82.9454 69.8358 82.9467C69.3422 82.9467 68.848 82.9467 68.3557 82.9631C64.8534 83.0694 64.0422 84.9977 63.9785 86.6005C63.8853 88.9312 65.4527 90.3915 68.17 90.5057C70.3694 90.5983 72.5976 90.5412 74.753 90.4867C75.7008 90.4624 76.6479 90.4375 77.595 90.4257C78.1023 90.4184 78.6103 90.4217 79.2089 90.423H79.5594L80.1232 147.402H79.054C77.5444 147.402 75.8918 147.402 74.2385 147.402C70.1114 147.406 65.983 147.4 61.8533 147.382C52.5924 147.355 43.0164 147.328 33.5993 147.49C26.5358 147.587 20.6097 145.567 16.5286 141.571C12.2374 137.371 9.95339 131.063 9.92385 123.334L9.88841 114.005C9.7939 89.4451 9.69545 64.0483 9.72892 39.0707C9.65206 33.2399 11.0462 27.4836 13.7825 22.3341C16.2647 17.7732 19.9304 14.9313 24.383 14.1148C31.4261 12.8232 38.3164 11.6482 45.181 11.4632C66.8074 10.8784 95.2774 10.2017 123.707 10.1505H123.784C137.065 10.1505 144.91 16.4027 147.1 28.7353C148.628 37.3386 150.25 47.3715 150.139 57.5671C149.94 75.5215 149.99 93.773 150.038 111.423L150.04 111.421Z" fill="black"/>
</g>
<defs>
<clipPath id="clip0">
<rect width="158.834" height="157.521" fill="white" transform="translate(0.342163 0.328857)"/>
</clipPath>
</defs>
</svg>

<svg xmlns="http://www.w3.org/2000/svg" width="160" height="158" fill="none" viewBox="0 0 160 158"><g clip-path="url(#a)"><path fill="#000" d="M158.835 96.614c.017-6.673.035-13.575-.004-20.363-.035-6.19-.255-12.476-.468-18.557l-.136-3.928c-.05-1.487-.09-2.975-.132-4.463-.131-4.801-.262-9.767-.746-14.628a84 84 0 0 0-2.79-14.562C150.761 6.772 138.097.726 127.87.726h-.156c-18.064.11-36.427.613-54.18 1.1q-9.316.255-18.631.495l-3.526.085c-6.993.167-14.224.34-21.325.783-12.83.8-21.354 6.03-26.056 15.99a25.2 25.2 0 0 0-2.367 9.237C.434 51.862.97 75.693 1.487 98.738q.1 4.464.197 8.918l.045 2.12c.136 6.334.277 12.883.318 19.322.083 13.258 11.567 25.716 24.576 26.655 2.865.154 5.736.15 8.601-.009 1.912-.072 3.892-.151 5.82-.121 8.604.118 17.352.287 25.812.449q7.23.138 14.458.269 5.186.09 10.376.165c6.06.091 12.324.185 18.484.328 1.084.061 2.161.222 3.216.482.525.111 1.044.222 1.567.311q.055.01.114.01h6.715a1 1 0 0 0 .099-.007 230 230 0 0 1 4.144-.564c3.002-.394 6.104-.795 9.115-1.451 13.295-2.896 23.956-16.671 23.771-30.706-.128-9.428-.103-19.019-.08-28.295m-8.795 14.807q.02 7.154.034 14.308c.015 8.832-7.23 18.613-15.504 20.93a59.3 59.3 0 0 1-15.321 2.399c-7.264.066-14.489-.256-22.138-.59-3.01-.131-6.072-.268-9.202-.381l.737-57.97c1.3-.037 2.57-.066 3.817-.1 3.582-.092 6.966-.179 10.358-.311a36.6 36.6 0 0 0 5.421-.571c2.524-.478 3.924-2.113 3.746-4.37-.183-2.335-1.847-3.784-4.341-3.784h-.006c-2.039 0-4.104.112-6.104.218-.767.04-1.534.082-2.301.117-2.416.11-4.832.225-7.345.345l-2.888.138q-.015-1.838-.042-3.667c-.14-10.748-.274-20.9 3.676-30.752 3.282-8.185 11.9-12.168 20.048-9.263a23.4 23.4 0 0 1 4.717 2.572c1.047.676 2.13 1.378 3.259 1.954.766.394 2.725 1.261 4.366.853 1.872-.46 2.686-2.264 2.125-4.71a11.94 11.94 0 0 0-6.17-7.875 27 27 0 0 0-21.921-1.951c-6.727 2.368-12.012 7.504-14.887 14.46a54.7 54.7 0 0 0-4.061 19.51c-.118 4.48-.09 8.908-.062 13.594.011 1.878.022 3.782.024 5.722l-2.09.175c-2.073.175-4.033.34-5.964.473-.722.05-1.465.051-2.185.053-.494 0-.988 0-1.48.016-3.503.106-4.314 2.035-4.377 3.638-.094 2.33 1.474 3.79 4.191 3.905 2.2.092 4.428.035 6.583-.02.948-.024 1.895-.049 2.842-.06.507-.008 1.015-.004 1.614-.003h.35l.564 56.979H74.24q-6.192.007-12.386-.02c-9.26-.027-18.837-.054-28.254.108-7.063.097-12.99-1.923-17.07-5.919-4.292-4.2-6.576-10.508-6.605-18.237l-.036-9.329c-.094-24.56-.193-49.957-.16-74.934a34.7 34.7 0 0 1 4.055-16.737c2.482-4.56 6.147-7.403 10.6-8.22 7.043-1.29 13.933-2.466 20.798-2.65 21.626-.586 50.096-1.262 78.526-1.314h.077c13.281 0 21.126 6.253 23.316 18.585 1.528 8.604 3.15 18.636 3.039 28.832-.199 17.955-.149 36.206-.101 53.856z"/></g><defs><clipPath id="a"><path fill="#fff" d="M.342.329h158.834v157.52H.342z"/></clipPath></defs></svg>
